public/flags/EG.svg

<svg fill="none" height="53" viewBox="0 0 61 53" width="61" xmlns="http://www.w3.org/2000/svg" xmlns:xlink="http://www.w3.org/1999/xlink"><mask id="a" height="43" maskUnits="userSpaceOnUse" width="59" x="1" y="3"><rect fill="#fff" height="41.4393" rx="3.7125" stroke="#fff" stroke-width="1.06071" width="57.9393" x="1.53036" y="3.53036"/></mask><rect fill="#fff" height="41.4393" rx="3.7125" stroke="#f5f5f5" stroke-width="1.06071" width="57.9393" x="1.53036" y="3.53036"/><g mask="url(#a)"><path clip-rule="evenodd" d="m1 17.1667h59v-14.1667h-59z" fill="#e41d33" fill-rule="evenodd"/><path clip-rule="evenodd" d="m1 45.5h59v-14.1667h-59z" fill="#262626" fill-rule="evenodd"/><path d="m27.0568 23.1474.6041 1.2184.6503-1.1939.0001-.0001.0001-.0002.0001-.0004.0024-.0043.0112-.0201c.0102-.0182.0259-.046.0466-.082.0415-.0719.103-.1762.1808-.3019.1565-.2527.3754-.5859.6286-.9155.2564-.3338.5308-.6412.795-.8587.2827-.2326.4561-.2816.5238-.2816.1173 0 .313.0644.5876.286.2645.2133.5311.5156.7765.8456.2423.3258.447.6555.5918.906.0721.1245.1283.2276.166.2986.0188.0355.033.0628.0421.0806l.0099.0195.002.004h.0001l.0001.0003v.0001l.0001.0001.6333 1.2774.6336-1.2779 1.2099-2.4403h.9565c.3906 0 .7072.3166.7072.7072v4.4306c0 .5661-.632.9027-1.1017.5869l-2.0109-1.352-.179-.1203h-.2156-1.4048-.7071v.7072 1.4285c0 .3853-.3123.6977-.6976.6977s-.6976-.3124-.6976-.6977v-1.4285-.7072h-.7072-1.4047-.2157l-.1789.1203-2.0109 1.352c-.4697.3158-1.1017-.0208-1.1017-.5869v-4.4306c0-.3906.3166-.7072.7072-.7072h.9565z" fill="#f4b32e" fill-opacity=".25" stroke="#c6a846" stroke-width="1.41429"/></g></svg>

<svg width="61" height="53" viewBox="0 0 61 53" fill="none" xmlns="http://www.w3.org/2000/svg">
<rect x="1.53036" y="3.53036" width="57.9393" height="41.4393" rx="3.7125" fill="white" stroke="#F5F5F5" stroke-width="1.06071"/>
<mask id="mask0" mask-type="alpha" maskUnits="userSpaceOnUse" x="1" y="3" width="59" height="43">
<rect x="1.53036" y="3.53036" width="57.9393" height="41.4393" rx="3.7125" fill="white" stroke="white" stroke-width="1.06071"/>
</mask>
<g mask="url(#mask0)">
<path fill-rule="evenodd" clip-rule="evenodd" d="M1 17.1667H60V3H1V17.1667Z" fill="#E41D33"/>
<path fill-rule="evenodd" clip-rule="evenodd" d="M1 45.5H60V31.3333H1V45.5Z" fill="#262626"/>
<path d="M27.0568 23.1474L27.6609 24.3658L28.3112 23.1719L28.3112 23.1719L28.3113 23.1718L28.3114 23.1716L28.3115 23.1712L28.3139 23.1669L28.3251 23.1468C28.3353 23.1286 28.351 23.1008 28.3717 23.0648C28.4132 22.9929 28.4747 22.8886 28.5525 22.7629C28.709 22.5102 28.9279 22.177 29.1811 21.8474C29.4375 21.5136 29.7119 21.2062 29.9761 20.9887C30.2588 20.7561 30.4322 20.7071 30.4999 20.7071C30.6172 20.7071 30.8129 20.7715 31.0875 20.9931C31.352 21.2064 31.6186 21.5087 31.864 21.8387C32.1063 22.1645 32.311 22.4942 32.4558 22.7447C32.5279 22.8692 32.5841 22.9723 32.6218 23.0433C32.6406 23.0788 32.6548 23.1061 32.6639 23.1239L32.6738 23.1434L32.6758 23.1474L32.6759 23.1474L32.676 23.1477L32.676 23.1478L32.6761 23.1479L33.3094 24.4253L33.943 23.1474L35.1529 20.7071L36.1094 20.7071C36.5 20.7071 36.8166 21.0237 36.8166 21.4143V25.8449C36.8166 26.411 36.1846 26.7476 35.7149 26.4318L33.704 25.0798L33.525 24.9595H33.3094H31.9046H31.1975V25.6667V27.0952C31.1975 27.4805 30.8852 27.7929 30.4999 27.7929C30.1146 27.7929 29.8023 27.4805 29.8023 27.0952V25.6667V24.9595H29.0951H27.6904H27.4747L27.2958 25.0798L25.2849 26.4318C24.8152 26.7476 24.1832 26.411 24.1832 25.8449V21.4143C24.1832 21.0237 24.4998 20.7071 24.8904 20.7071H25.8469L27.0568 23.1474Z" fill="#F4B32E" fill-opacity="0.25" stroke="#C6A846" stroke-width="1.41429"/>
</g>
</svg>
